X:8
T:Pastre di mountagno
T:Bergers des montagnes
M:6/8
L:1/8
K:Gm
G2d B2c | d3 d3 | G2A B2A | G3- G3 :| A2B c2c | c3 A3 |
d2d c2B | A3- A3 | G2A B2c | d3 d3 | G2c B2A | G3- G3 |]
%%begintext justify
